public/images/icon_id_sector_empresa_19.svg

<svg width="42" height="42" viewBox="0 0 42 42" fill="none" xmlns="http://www.w3.org/2000/svg">
<path d="M10.3031 11.9304C9.92252 11.9304 9.60752 11.7204 9.60752 11.5498C9.60752 11.2217 9.3319 10.9461 9.00377 10.9461C8.67565 10.9461 8.40002 11.2217 8.40002 11.5498C8.40002 12.2454 8.92502 12.8492 9.6994 13.0592V13.3086C9.6994 13.6367 9.97502 13.9123 10.3031 13.9123C10.6313 13.9123 10.9069 13.6367 10.9069 13.3086V13.0592C11.6813 12.8492 12.2063 12.2454 12.2063 11.5498C12.2063 10.2898 11.0381 10.0798 10.4081 9.9748C9.60752 9.83043 9.60752 9.75168 9.60752 9.59418C9.60752 9.43668 9.9094 9.21355 10.3031 9.21355C10.6969 9.21355 10.9988 9.42355 10.9988 9.59418C10.9988 9.9223 11.2744 10.1979 11.6025 10.1979C11.9306 10.1979 12.2063 9.9223 12.2063 9.59418C12.2063 8.89855 11.6813 8.2948 10.9069 8.0848V7.88793C10.9069 7.5598 10.6313 7.28418 10.3031 7.28418C9.97502 7.28418 9.6994 7.5598 9.6994 7.88793V8.0848C8.92502 8.2948 8.40002 8.89855 8.40002 9.59418C8.40002 10.8542 9.52877 11.0511 10.1981 11.1692C10.9988 11.3136 10.9988 11.3923 10.9988 11.5498C10.9988 11.7073 10.6838 11.9304 10.3031 11.9304Z" fill="url(#paint0_linear_133_1159)"/>
<path d="M10.3031 15.2908C12.915 15.2908 15.0281 13.1646 15.0281 10.5658C15.0281 7.96707 12.9019 5.84082 10.3031 5.84082C7.70437 5.84082 5.57812 7.96707 5.57812 10.5658C5.57812 13.1646 7.70437 15.2908 10.3031 15.2908ZM6.79875 10.5658C6.79875 8.63645 8.37375 7.06145 10.3031 7.06145C12.2325 7.06145 13.8075 8.63645 13.8075 10.5658C13.8075 12.4952 12.2325 14.0702 10.3031 14.0702C8.37375 14.0702 6.79875 12.4952 6.79875 10.5658Z" fill="url(#paint1_linear_133_1159)"/>
<path d="M27.8644 34.8205C27.7331 34.5186 27.3656 34.3743 27.0638 34.5186C23.4413 36.133 19.3988 36.238 15.6844 34.8205C8.74127 32.1561 4.83002 24.6355 6.54939 17.4693L6.64127 17.7843C6.69377 17.9418 6.78564 18.073 6.93002 18.1386C7.07439 18.2174 7.23189 18.2305 7.38939 18.1911C7.54689 18.1386 7.67814 18.0468 7.74377 17.9024C7.82252 17.758 7.83564 17.6005 7.79627 17.443L7.12689 15.2249C7.07439 15.0411 6.93002 14.8968 6.75939 14.8311C6.58877 14.7655 6.39189 14.7786 6.22127 14.8836L4.23939 16.078C4.09502 16.1568 4.00314 16.3011 3.96377 16.4586C3.92439 16.6161 3.96377 16.7736 4.02939 16.918C4.20002 17.2068 4.58064 17.2986 4.86939 17.128L5.44689 16.7736C4.47564 20.383 4.79064 24.2155 6.35252 27.6411C8.11127 31.4999 11.2613 34.453 15.225 35.9624C17.0756 36.6711 19.0181 37.0386 20.9869 37.0386C23.2444 37.0386 25.4494 36.5661 27.5363 35.6343C27.8381 35.503 27.9825 35.1355 27.8381 34.8336L27.8644 34.8205Z" fill="url(#paint2_linear_133_1159)"/>
<path d="M35.7394 27.8778L31.8544 25.6334C31.6706 25.5284 31.4344 25.5284 31.2506 25.6334L27.3788 27.8778C27.195 27.9828 27.0769 28.1797 27.0769 28.4028V32.8784C27.0769 33.1016 27.195 33.2984 27.3788 33.4034L31.2637 35.6478C31.3556 35.7003 31.4606 35.7266 31.5656 35.7266C31.6706 35.7266 31.7756 35.7003 31.8675 35.6478L35.7525 33.4034C35.9362 33.2984 36.0544 33.1016 36.0544 32.8784V28.4028C36.0544 28.1797 35.9362 27.9828 35.7525 27.8778H35.7394ZM30.9487 31.0016V34.0728L28.2844 32.5372V29.4659L30.9487 31.0016ZM32.1562 31.0016L32.4056 30.8572V32.0647C32.4056 32.2747 32.5237 32.4847 32.7075 32.5897C32.8913 32.6947 33.1275 32.6947 33.3112 32.5897L34.2694 32.0384C34.4531 31.9334 34.5712 31.7234 34.5712 31.5134V29.6103L34.8206 29.4659V32.5372L32.1562 34.0728V31.0016ZM31.3031 27.0116L31.5525 26.8672L34.2169 28.4028L33.9675 28.5472L31.3031 27.0116ZM31.8019 29.8072L31.5525 29.9516L28.8881 28.4159L29.1375 28.2716L31.8019 29.8072Z" fill="url(#paint3_linear_133_1159)"/>
<path d="M37.9444 24.9505C37.7738 24.6618 37.3931 24.5699 37.1044 24.7536L36.5269 25.108C37.4981 21.4986 37.1831 17.653 35.6081 14.2274C33.8363 10.3818 30.6994 7.42864 26.7488 5.91926C22.7325 4.38364 18.3619 4.50176 14.4375 6.24739C14.2931 6.31301 14.175 6.43114 14.1225 6.58864C14.07 6.74614 14.07 6.90364 14.1225 7.04801C14.1881 7.19239 14.3063 7.31051 14.4638 7.36301C14.6213 7.42864 14.7788 7.41551 14.9231 7.36301C18.5456 5.74864 22.5881 5.64364 26.3025 7.06114C33.2456 9.72551 37.1569 17.2461 35.4375 24.4124L35.3456 24.0974C35.2931 23.9399 35.2013 23.8086 35.0569 23.743C34.9125 23.6643 34.7419 23.6511 34.5975 23.7036C34.44 23.7561 34.3088 23.848 34.2431 23.9924C34.1644 24.1368 34.1513 24.2943 34.1906 24.4518L34.86 26.6699C34.9125 26.8536 35.0438 26.998 35.2275 27.0636C35.2931 27.0899 35.3719 27.103 35.4375 27.103C35.5425 27.103 35.6606 27.0768 35.7525 27.0111L37.7344 25.8168C37.8788 25.738 37.9706 25.5936 38.01 25.4361C38.0494 25.2786 38.01 25.108 37.9444 24.9768V24.9505Z" fill="url(#paint4_linear_133_1159)"/>
<path d="M26.1975 13.3088C25.9875 13.1513 25.6988 13.1644 25.4888 13.3219L24.4125 14.1356C24.0844 13.965 23.7431 13.8206 23.3888 13.7156L23.205 12.3769C23.1656 12.1144 22.9688 11.9044 22.7194 11.865C21.5775 11.655 20.4225 11.655 19.2806 11.865C19.0181 11.9175 18.8213 12.1144 18.795 12.3769L18.6113 13.7156C18.2569 13.8338 17.9156 13.9781 17.5875 14.1356L16.5244 13.3219C16.3144 13.1644 16.0256 13.1513 15.8156 13.3088C14.8575 13.9519 14.0438 14.7788 13.3875 15.7369C13.2431 15.96 13.2431 16.2356 13.4006 16.4456L14.2144 17.5088C14.0438 17.8369 13.8994 18.1781 13.7944 18.5325L12.4556 18.7163C12.1931 18.7556 11.9831 18.9525 11.9438 19.2019C11.7338 20.3438 11.7338 21.4988 11.9438 22.6406C11.9963 22.9031 12.2063 23.1 12.4556 23.1263L13.7944 23.31C13.9125 23.6644 14.0569 24.0056 14.2144 24.3338L13.4006 25.3969C13.2431 25.6069 13.23 25.8956 13.3875 26.1056C14.0438 27.0638 14.8575 27.8775 15.8156 28.5338C16.0388 28.6781 16.3144 28.6781 16.5244 28.5206L17.6006 27.7069C17.9288 27.8775 18.27 28.0219 18.6244 28.1269L18.8081 29.4656C18.8475 29.7281 19.0444 29.9381 19.2938 29.9775C19.8581 30.0825 20.4356 30.135 21.0131 30.135C21.5906 30.135 22.155 30.0825 22.7325 29.9775C22.995 29.925 23.1919 29.715 23.2181 29.4656L23.4019 28.1269C23.7563 28.0088 24.0975 27.8644 24.4256 27.7069L25.5019 28.5206C25.7119 28.6781 26.0006 28.6913 26.2106 28.5338C27.1688 27.8775 27.9825 27.0638 28.6388 26.1056C28.7831 25.8956 28.7831 25.6069 28.6256 25.3969L27.8119 24.3338C27.9825 24.0056 28.1269 23.6513 28.245 23.31L29.5838 23.1263C29.8463 23.0869 30.0563 22.89 30.0956 22.6406C30.3056 21.4988 30.3056 20.3438 30.0956 19.2019C30.0431 18.9394 29.8463 18.7425 29.5838 18.7163L28.245 18.5325C28.1269 18.1781 27.9825 17.8369 27.8119 17.5088L28.6256 16.4456C28.7831 16.2356 28.7963 15.9469 28.6388 15.7369C27.9825 14.7788 27.1688 13.965 26.2106 13.3088H26.1975ZM27.1556 22.6013C27.0113 23.1263 26.8013 23.625 26.5388 24.0975C26.4206 24.3075 26.4338 24.57 26.5781 24.7669L27.3525 25.7906C26.9194 26.355 26.4206 26.8538 25.8563 27.2869L24.8325 26.5125C24.6356 26.3681 24.3731 26.3419 24.1631 26.4731C23.6906 26.7356 23.1919 26.9456 22.6669 27.09C22.4306 27.1556 22.26 27.3525 22.2206 27.6019L22.05 28.875C21.3413 28.9669 20.6325 28.9669 19.9238 28.875L19.7531 27.6019C19.7269 27.3656 19.5431 27.1556 19.3069 27.09C18.7819 26.9456 18.2831 26.7356 17.8106 26.4731C17.6006 26.355 17.3381 26.3681 17.1413 26.5256L16.1175 27.3C15.5531 26.8669 15.0544 26.3681 14.6213 25.8038L15.3956 24.78C15.54 24.5831 15.5663 24.3206 15.435 24.1106C15.1725 23.6381 14.9625 23.1394 14.8181 22.6144C14.7525 22.3781 14.5556 22.2075 14.3063 22.1681L13.0331 21.9975C12.9413 21.2888 12.9413 20.58 13.0331 19.8713L14.3063 19.7006C14.5556 19.6613 14.7525 19.4906 14.805 19.2544C14.9494 18.7425 15.1594 18.2306 15.4219 17.7581C15.54 17.5481 15.5269 17.2856 15.3825 17.0888L14.6081 16.065C15.0413 15.5006 15.54 14.9888 16.1044 14.5688L17.1281 15.3431C17.325 15.5006 17.5875 15.5138 17.7975 15.3825C18.27 15.12 18.7688 14.91 19.2938 14.7656C19.53 14.7 19.7006 14.5031 19.74 14.2538L19.9106 12.9806C20.6194 12.8888 21.3281 12.8888 22.0369 12.9806L22.2075 14.2538C22.2338 14.5031 22.4175 14.7 22.6538 14.7656C23.1788 14.91 23.6775 15.12 24.15 15.3825C24.36 15.5006 24.6225 15.4875 24.8194 15.3431L25.8431 14.5688C26.4075 15.0019 26.9063 15.5006 27.3394 16.065L26.565 17.0888C26.4206 17.2856 26.3944 17.5481 26.5256 17.7581C26.7881 18.2175 26.9981 18.7294 27.1425 19.2544C27.2081 19.4906 27.405 19.6613 27.6544 19.7006L28.9275 19.8713C29.0194 20.58 29.0194 21.2888 28.9275 21.9975L27.6544 22.1681C27.4181 22.1944 27.2081 22.3781 27.1425 22.6144L27.1556 22.6013Z" fill="url(#paint5_linear_133_1159)"/>
<path d="M21 16.0781C19.7006 16.0781 18.48 16.5768 17.5744 17.4956C16.6556 18.4143 16.1569 19.6349 16.1569 20.9212C16.1569 22.2074 16.6556 23.4281 17.5744 24.3468C18.4931 25.2656 19.7137 25.7643 21 25.7643C22.2862 25.7643 23.52 25.2656 24.4256 24.3468C26.3156 22.4568 26.3156 19.3724 24.4256 17.4824C23.5069 16.5637 22.2862 16.0649 21 16.0649V16.0781ZM23.5725 23.4937C22.89 24.1762 21.9712 24.5568 21 24.5568C20.0287 24.5568 19.11 24.1762 18.4275 23.4937C17.745 22.8112 17.3644 21.8924 17.3644 20.9212C17.3644 19.9499 17.745 19.0312 18.4275 18.3487C19.11 17.6662 20.0287 17.2856 21 17.2856C21.9712 17.2856 22.89 17.6662 23.5725 18.3487C24.99 19.7662 24.99 22.0762 23.5725 23.4937Z" fill="url(#paint6_linear_133_1159)"/>
<defs>
<linearGradient id="paint0_linear_133_1159" x1="10.2655" y1="7.28418" x2="12.4161" y2="8.04483" gradientUnits="userSpaceOnUse">
<stop stop-color="#192644"/>
<stop offset="1" stop-color="#1A4081"/>
</linearGradient>
<linearGradient id="paint1_linear_133_1159" x1="10.2097" y1="5.84082" x2="14.5648" y2="8.52325" gradientUnits="userSpaceOnUse">
<stop stop-color="#192644"/>
<stop offset="1" stop-color="#1A4081"/>
</linearGradient>
<linearGradient id="paint2_linear_133_1159" x1="15.6846" y1="14.791" x2="26.2594" y2="21.8017" gradientUnits="userSpaceOnUse">
<stop stop-color="#192644"/>
<stop offset="1" stop-color="#1A4081"/>
</linearGradient>
<linearGradient id="paint3_linear_133_1159" x1="31.4769" y1="25.5547" x2="35.8821" y2="27.9494" gradientUnits="userSpaceOnUse">
<stop stop-color="#192644"/>
<stop offset="1" stop-color="#1A4081"/>
</linearGradient>
<linearGradient id="paint4_linear_133_1159" x1="25.8178" y1="4.84717" x2="36.3943" y2="11.8552" gradientUnits="userSpaceOnUse">
<stop stop-color="#192644"/>
<stop offset="1" stop-color="#1A4081"/>
</linearGradient>
<linearGradient id="paint5_linear_133_1159" x1="20.8372" y1="11.7075" x2="29.3378" y2="16.9545" gradientUnits="userSpaceOnUse">
<stop stop-color="#192644"/>
<stop offset="1" stop-color="#1A4081"/>
</linearGradient>
<linearGradient id="paint6_linear_133_1159" x1="20.9042" y1="16.0649" x2="25.3716" y2="18.8128" gradientUnits="userSpaceOnUse">
<stop stop-color="#192644"/>
<stop offset="1" stop-color="#1A4081"/>
</linearGradient>
</defs>
</svg>

<svg xmlns="http://www.w3.org/2000/svg" fill="none" viewBox="0 0 42 42"><path fill="url(#a)" d="M10.3 11.93c-.38 0-.7-.21-.7-.38 0-.33-.27-.6-.6-.6-.32 0-.6.27-.6.6 0 .7.53 1.3 1.3 1.5v.26c0 .33.28.6.6.6.33 0 .6-.27.6-.6v-.25c.78-.21 1.3-.81 1.3-1.51 0-1.26-1.16-1.47-1.8-1.58-.8-.14-.8-.22-.8-.38 0-.15.3-.38.7-.38.4 0 .7.21.7.38 0 .33.27.6.6.6.33 0 .6-.27.6-.6 0-.7-.52-1.3-1.3-1.5v-.2c0-.33-.27-.6-.6-.6-.32 0-.6.27-.6.6v.2c-.77.2-1.3.8-1.3 1.5 0 1.26 1.13 1.46 1.8 1.58.8.14.8.22.8.38s-.32.38-.7.38Z"/><path fill="url(#b)" d="M10.3 15.3a4.73 4.73 0 1 0 0-9.47 4.73 4.73 0 0 0 0 9.46Zm-3.5-4.73a3.51 3.51 0 0 1 7 0 3.51 3.51 0 0 1-7 0Z"/><path fill="url(#c)" d="M27.86 34.82c-.13-.3-.5-.45-.8-.3a14.8 14.8 0 0 1-11.38.3 14.96 14.96 0 0 1-9.13-17.35l.1.31c.04.16.14.3.28.36.14.08.3.09.46.05a.56.56 0 0 0 .35-.29c.08-.14.1-.3.06-.46l-.67-2.22a.61.61 0 0 0-.9-.34l-2 1.2a.59.59 0 0 0-.27.38.7.7 0 0 0 .07.46c.17.29.55.38.84.2l.58-.35a16.08 16.08 0 0 0 22.09 18.86.6.6 0 0 0 .3-.8h.02Z"/><path fill="url(#d)" d="m35.74 27.88-3.89-2.25a.62.62 0 0 0-.6 0l-3.87 2.25a.6.6 0 0 0-.3.52v4.48c0 .22.12.42.3.52l3.88 2.25a.61.61 0 0 0 .6 0l3.9-2.25c.18-.1.3-.3.3-.52V28.4a.6.6 0 0 0-.3-.52h-.02ZM30.94 31v3.07l-2.66-1.53v-3.07L30.95 31Zm1.22 0 .25-.14v1.2c0 .21.11.42.3.53.18.1.42.1.6 0l.96-.55c.18-.1.3-.32.3-.53v-1.9l.25-.14v3.07l-2.66 1.53V31Zm-.86-3.99.25-.14 2.67 1.53-.25.15L31.3 27Zm.5 2.8-.25.14-2.66-1.53.25-.15 2.66 1.54Z"/><path fill="url(#e)" d="M37.94 24.95a.6.6 0 0 0-.84-.2l-.57.36a16.05 16.05 0 0 0-9.78-19.2 16.02 16.02 0 0 0-12.31.34.58.58 0 0 0-.32.34.69.69 0 0 0 0 .46c.07.14.19.26.34.31.16.07.32.06.46 0a14.8 14.8 0 0 1 11.38-.3 14.96 14.96 0 0 1 9.14 17.35l-.1-.31a.56.56 0 0 0-.28-.36.57.57 0 0 0-.46-.04.56.56 0 0 0-.36.3c-.08.14-.09.3-.05.45l.67 2.22c.05.18.18.33.37.4a.6.6 0 0 0 .52-.06l1.98-1.2a.59.59 0 0 0 .28-.37.69.69 0 0 0-.07-.46v-.03Z"/><path fill="url(#f)" d="M26.2 13.3a.6.6 0 0 0-.71.02l-1.08.82a5.8 5.8 0 0 0-1.02-.42l-.19-1.34a.6.6 0 0 0-.48-.52 9.46 9.46 0 0 0-3.44 0 .58.58 0 0 0-.48.52l-.19 1.34c-.35.11-.7.26-1.02.42l-1.07-.82a.6.6 0 0 0-.7-.01 9.1 9.1 0 0 0-2.43 2.43c-.15.22-.15.5.01.7l.81 1.07c-.17.33-.31.67-.42 1.02l-1.33.19a.6.6 0 0 0-.52.48 9.46 9.46 0 0 0 0 3.44.6.6 0 0 0 .52.49l1.33.18c.12.35.27.7.42 1.02l-.8 1.07a.6.6 0 0 0-.02.7 9.29 9.29 0 0 0 2.43 2.43c.22.15.5.15.7 0l1.08-.82c.33.17.67.31 1.02.42l.19 1.34a.6.6 0 0 0 .48.5 9.41 9.41 0 0 0 3.44 0 .6.6 0 0 0 .49-.5l.18-1.34c.36-.12.7-.27 1.03-.42l1.07.81c.21.16.5.17.71.01a9.29 9.29 0 0 0 2.43-2.42.61.61 0 0 0-.01-.71l-.82-1.07c.17-.32.32-.68.44-1.02l1.33-.18a.6.6 0 0 0 .52-.49c.2-1.14.2-2.3 0-3.44a.58.58 0 0 0-.52-.48l-1.33-.19c-.12-.35-.27-.7-.44-1.02l.82-1.06a.6.6 0 0 0 0-.71 9.29 9.29 0 0 0-2.42-2.43h-.01Zm.96 9.3a6.78 6.78 0 0 1-.62 1.5c-.12.2-.1.47.04.67l.77 1.02a8.08 8.08 0 0 1-1.5 1.5l-1.02-.78a.6.6 0 0 0-.67-.04c-.47.27-.97.48-1.5.62a.62.62 0 0 0-.44.51l-.17 1.27c-.7.1-1.42.1-2.13 0l-.17-1.27a.62.62 0 0 0-.44-.51 6.78 6.78 0 0 1-1.5-.62.6.6 0 0 0-.67.06l-1.02.77a8.08 8.08 0 0 1-1.5-1.5l.78-1.02a.6.6 0 0 0 .04-.67 6.78 6.78 0 0 1-.62-1.5.62.62 0 0 0-.51-.44L13.03 22c-.09-.71-.09-1.42 0-2.13l1.28-.17a.59.59 0 0 0 .5-.45c.14-.5.35-1.02.61-1.5a.62.62 0 0 0-.04-.66l-.77-1.02a7.7 7.7 0 0 1 1.5-1.5l1.02.77c.2.16.46.17.67.04.47-.26.97-.47 1.5-.61.23-.07.4-.27.44-.52l.17-1.27c.7-.1 1.42-.1 2.13 0l.17 1.27a.6.6 0 0 0 .44.52c.53.14 1.03.35 1.5.61.21.12.47.1.67-.04l1.02-.77c.57.43 1.07.93 1.5 1.5l-.77 1.02a.6.6 0 0 0-.04.67c.26.46.47.97.61 1.5.07.23.27.4.51.44l1.28.17c.09.71.09 1.42 0 2.13l-1.28.17a.62.62 0 0 0-.5.44Z"/><path fill="url(#g)" d="M21 16.08a4.82 4.82 0 0 0-3.43 8.27 4.82 4.82 0 0 0 6.86 0A4.86 4.86 0 0 0 21 16.06v.02Zm2.57 7.41a3.62 3.62 0 0 1-5.14 0 3.62 3.62 0 0 1 0-5.14 3.62 3.62 0 0 1 5.14 0 3.64 3.64 0 0 1 0 5.14Z"/><defs><linearGradient id="a" x1="10.27" x2="12.42" y1="7.28" y2="8.04" gradientUnits="userSpaceOnUse"><stop stop-color="#192644"/><stop offset="1" stop-color="#1A4081"/></linearGradient><linearGradient id="b" x1="10.21" x2="14.56" y1="5.84" y2="8.52" gradientUnits="userSpaceOnUse"><stop stop-color="#192644"/><stop offset="1" stop-color="#1A4081"/></linearGradient><linearGradient id="c" x1="15.68" x2="26.26" y1="14.79" y2="21.8" gradientUnits="userSpaceOnUse"><stop stop-color="#192644"/><stop offset="1" stop-color="#1A4081"/></linearGradient><linearGradient id="d" x1="31.48" x2="35.88" y1="25.55" y2="27.95" gradientUnits="userSpaceOnUse"><stop stop-color="#192644"/><stop offset="1" stop-color="#1A4081"/></linearGradient><linearGradient id="e" x1="25.82" x2="36.39" y1="4.85" y2="11.86" gradientUnits="userSpaceOnUse"><stop stop-color="#192644"/><stop offset="1" stop-color="#1A4081"/></linearGradient><linearGradient id="f" x1="20.84" x2="29.34" y1="11.71" y2="16.95" gradientUnits="userSpaceOnUse"><stop stop-color="#192644"/><stop offset="1" stop-color="#1A4081"/></linearGradient><linearGradient id="g" x1="20.9" x2="25.37" y1="16.06" y2="18.81" gradientUnits="userSpaceOnUse"><stop stop-color="#192644"/><stop offset="1" stop-color="#1A4081"/></linearGradient></defs></svg>
